X:1
T:Bloody Piglets
C:Bill Quern
M:6/8
L:1/8
K:G
"G"gfd Bcd|Bcd g3|"D"afd cdB|ABG "C"F3|
"G"gfd Bcd|Bcd g3|"D"afd cdB|AGF "G"G3:|
"D"FGA FGA|FGA "C"c3|"G"Bcd g3|gfd "D"f3|
FGA FGA|FGA "C"c3|"G"Bcd g3|"D"afd "G"g3:|
